X:230
T:Louis Cyr
M:4/4
L:1/8
C:Jean-Claude Mirandette
K:G
G,2G,B, D2B,D | EDEF G2GA | BAGB AGFD | EDEF FEB,D |
G,2G,B, D2B,D | EDEF G2GA | BAGB AGFD |1 EDEF G2DB,  :|2 EDEF G2GA |:
BAGB A2GA | BAGB A2AB | cBAc B2AB | cABG A2GA |
BAGB A2GA | BAGB AGFD | E3E- EFF2 | F2E2 E2GA :|

